formas-de-pagamento/amex-american-express.svg

<svg enable-background="new 0 0 60 40" height="40" viewBox="0 0 60 40" width="60" xmlns="http://www.w3.org/2000/svg"><switch><foreignObject height="1" requiredExtensions="http://ns.adobe.com/AdobeIllustrator/10.0/" width="1"/><g><path d="m60 35c0 2.75-2.25 5-5 5h-50c-2.75 0-5-2.25-5-5v-30c0-2.75 2.25-5 5-5h50c2.75 0 5 2.25 5 5z" fill="#129ad7"/><g fill="#fff"><path d="m55 0h-50c-2.75 0-5 2.25-5 5v30c0 2.75 2.25 5 5 5h50c2.75 0 5-2.25 5-5v-30c0-2.75-2.25-5-5-5zm0 1c2.206 0 4 1.794 4 4v30c0 2.206-1.794 4-4 4h-50c-2.206 0-4-1.794-4-4v-30c0-2.206 1.794-4 4-4z" opacity=".25"/><path d="m16.382 17.733 1.188 2.739h-2.469zm21.82 4.291h-4.129v-1.484h4.129v-1.349h-4.129v-1.214h4.129v-1.147l3.063 3.063-3.063 3.077zm4.278-3.212-2.024-2.186h-8.123v6.747h7.854l2.227-2.213 2.24 2.213h2.092l-3.198-3.414 3.293-3.333h-2.186zm-11.7-2.186h-2.834l-2.132 4.521-2.294-4.521h-2.834v6.545l-2.928-6.545h-2.658l-3.131 6.747h1.916l.634-1.538h3.643l.729 1.538h3.522v-5.492l2.496 5.492h1.646l2.483-5.398v5.398h1.741zm-13.791 6.707h-1.242zm-1.237-.1-.637 1.49h-5.709l4.506-9.446h10.762l1.086 2.086 1.015-2.086h3.823 1.927 8.759l1.24 1.297 1.332-1.297h6.738l-4.784 4.712 4.577 4.734h-6.52l-1.459-1.391-1.447 1.391h-8.436-1.927-12.911l-.7-1.49z"/></g></g></switch></svg>

<?xml version="1.0" encoding="UTF-8"?>
<svg width="60px" height="40px" viewBox="0 0 60 40" version="1.1" xmlns="http://www.w3.org/2000/svg" xmlns:xlink="http://www.w3.org/1999/xlink">
    <!-- Generator: Sketch 52.4 (67378) - http://www.bohemiancoding.com/sketch -->
    <title>Artboard</title>
    <desc>Created with Sketch.</desc>
    <g id="Artboard" stroke="none" stroke-width="1" fill="none" fill-rule="evenodd">
        <path d="M60,35 C60,37.75 57.75,40 55,40 L5,40 C2.25,40 0,37.75 0,35 L0,5 C0,2.25 2.25,0 5,0 L55,0 C57.75,0 60,2.25 60,5 L60,35 Z" id="Path" fill="#129AD7"></path>
        <path d="M16.382,17.733 L17.57,20.472 L15.101,20.472 L16.382,17.733 Z M38.202,22.024 L34.073,22.024 L34.073,20.54 L38.202,20.54 L38.202,19.191 L34.073,19.191 L34.073,17.977 L38.202,17.977 L38.202,16.83 L41.265,19.893 L38.202,22.97 L38.202,22.024 Z M42.48,18.812 L40.456,16.626 L32.333,16.626 L32.333,23.373 L40.187,23.373 L42.414,21.16 L44.654,23.373 L46.746,23.373 L43.548,19.959 L46.841,16.626 L44.655,16.626 L42.48,18.812 Z M30.78,16.626 L27.946,16.626 L25.814,21.147 L23.52,16.626 L20.686,16.626 L20.686,23.171 L17.758,16.626 L15.1,16.626 L11.969,23.373 L13.885,23.373 L14.519,21.835 L18.162,21.835 L18.891,23.373 L22.413,23.373 L22.413,17.881 L24.909,23.373 L26.555,23.373 L29.038,17.975 L29.038,23.373 L30.779,23.373 L30.78,16.626 Z M16.989,23.333 L15.747,23.333 L16.989,23.333 Z M15.752,23.233 L15.115,24.723 L9.406,24.723 L13.912,15.277 L24.674,15.277 L25.76,17.363 L26.775,15.277 L30.598,15.277 L32.525,15.277 L41.284,15.277 L42.524,16.574 L43.856,15.277 L50.594,15.277 L45.81,19.989 L50.387,24.723 L43.867,24.723 L42.408,23.332 L40.961,24.723 L32.525,24.723 L30.598,24.723 L17.687,24.723 L16.987,23.233 L15.752,23.233 Z" id="Shape" fill="#FFFFFF" fill-rule="nonzero"></path>
    </g>
</svg>
